src/theme/img/laskennallinen_vedenkorkeus_pohja.svg

<svg width="85" height="28" viewBox="0 0 85 28" xmlns="http://www.w3.org/2000/svg" xmlns:xlink="http://www.w3.org/1999/xlink">
  <defs>
    <filter x="-4.7%" y="-14.3%" width="111.8%" height="135.7%" filterUnits="objectBoundingBox" id="a">
      <feOffset dx="1" dy="1" in="SourceAlpha" result="shadowOffsetOuter1"/>
      <feGaussianBlur stdDeviation="1.5" in="shadowOffsetOuter1" result="shadowBlurOuter1"/>
      <feColorMatrix values="0 0 0 0 0 0 0 0 0 0 0 0 0 0 0 0 0 0 0.5 0" in="shadowBlurOuter1"/>
    </filter>
    <path d="m16 24-4 4-4-4H0V0h85v24H16Z" id="b"/>
  </defs>
  <g fill="none" fill-rule="evenodd">
    <g>
      <use fill="#000" filter="url(#a)" xlink:href="#b"/>
      <use fill="#FFF" xlink:href="#b"/>
    </g>
    <path d="M8.18888889 15.9472222h1.16666667v-3.9861111H8.18888889v3.9861111Zm6.45555551 0h1.1666667V7.78055556h-1.1666667v8.16666664Zm-3.2277777 0h1.1666666v-2.2944444h-1.1666666v2.2944444Zm0-3.9861111h1.1666666v-1.1666667h-1.1666666v1.1666667ZM6.16666667 19c-.31111111 0-.58333334-.1166667-.81666667-.35-.23333333-.2333333-.35-.5055556-.35-.8166667V6.16666667c0-.31111111.11666667-.58333334.35-.81666667.23333333-.23333333.50555556-.35.81666667-.35H17.8333333c.3111111 0 .5833334.11666667.8166667.35.2333333.23333333.35.50555556.35.81666667V17.8333333c0 .3111111-.1166667.5833334-.35.8166667-.2333333.2333333-.5055556.35-.8166667.35H6.16666667Zm0-1.1666667H17.8333333V6.16666667H6.16666667V17.8333333Zm.04027777-11.66666663V17.8333333 6.16666667Z" stroke="#000" stroke-width=".25" fill="#000" fill-rule="nonzero"/>
  </g>
</svg>

<?xml version="1.0" encoding="UTF-8"?>
<svg width="85px" height="28px" viewBox="0 0 85 28" version="1.1" xmlns="http://www.w3.org/2000/svg" xmlns:xlink="http://www.w3.org/1999/xlink">
    <title>21E1832D-44F3-4B87-A333-63525070601F</title>
    <defs>
        <path d="M16,24 L12,28 L8,24 L0,24 L0,0 L85,0 L85,24 L16,24 Z" id="path-1"></path>
        <filter x="-4.7%" y="-14.3%" width="111.8%" height="135.7%" filterUnits="objectBoundingBox" id="filter-2">
            <feOffset dx="1" dy="1" in="SourceAlpha" result="shadowOffsetOuter1"></feOffset>
            <feGaussianBlur stdDeviation="1.5" in="shadowOffsetOuter1" result="shadowBlurOuter1"></feGaussianBlur>
            <feColorMatrix values="0 0 0 0 0   0 0 0 0 0   0 0 0 0 0  0 0 0 0.5 0" type="matrix" in="shadowBlurOuter1"></feColorMatrix>
        </filter>
    </defs>
    <g id="Squat-laskuri" stroke="none" stroke-width="1" fill="none" fill-rule="evenodd">
        <g id="colors_and_typography" transform="translate(-1298.000000, -818.000000)">
            <g id="turvalaite_ikonit" transform="translate(718.000000, 818.000000)">
                <g id="laskennallinen_vedenkorkeus_pohja" transform="translate(580.000000, 0.000000)">
                    <g id="Combined-Shape">
                        <use fill="black" fill-opacity="1" filter="url(#filter-2)" xlink:href="#path-1"></use>
                        <use fill="#FFFFFF" fill-rule="evenodd" xlink:href="#path-1"></use>
                    </g>
                    <path d="M8.18888889,15.9472222 L9.35555556,15.9472222 L9.35555556,11.9611111 L8.18888889,11.9611111 L8.18888889,15.9472222 Z M14.6444444,15.9472222 L15.8111111,15.9472222 L15.8111111,7.78055556 L14.6444444,7.78055556 L14.6444444,15.9472222 Z M11.4166667,15.9472222 L12.5833333,15.9472222 L12.5833333,13.6527778 L11.4166667,13.6527778 L11.4166667,15.9472222 Z M11.4166667,11.9611111 L12.5833333,11.9611111 L12.5833333,10.7944444 L11.4166667,10.7944444 L11.4166667,11.9611111 Z M6.16666667,19 C5.85555556,19 5.58333333,18.8833333 5.35,18.65 C5.11666667,18.4166667 5,18.1444444 5,17.8333333 L5,6.16666667 C5,5.85555556 5.11666667,5.58333333 5.35,5.35 C5.58333333,5.11666667 5.85555556,5 6.16666667,5 L17.8333333,5 C18.1444444,5 18.4166667,5.11666667 18.65,5.35 C18.8833333,5.58333333 19,5.85555556 19,6.16666667 L19,17.8333333 C19,18.1444444 18.8833333,18.4166667 18.65,18.65 C18.4166667,18.8833333 18.1444444,19 17.8333333,19 L6.16666667,19 Z M6.16666667,17.8333333 L17.8333333,17.8333333 L17.8333333,6.16666667 L6.16666667,6.16666667 L6.16666667,17.8333333 Z M6.20694444,6.16666667 L6.20694444,17.8333333 L6.20694444,6.16666667 Z" id="Shape" stroke="#000000" stroke-width="0.25" fill="#000000" fill-rule="nonzero"></path>
                </g>
            </g>
        </g>
    </g>
</svg>
